static/assets/images/networks/bitlayer-mono.svg

<svg width="287" height="256" viewBox="0 0 287 256" fill="none" xmlns="http://www.w3.org/2000/svg">
<path fill-rule="evenodd" clip-rule="evenodd" d="M22.4041 0.662356C15.8554 0.837465 9.39136 2.1835 3.31913 4.63649L0 6.12678V57.7904L2.32339 56.4657C7.30208 53.9819 15.5999 52.326 29.7061 51.4981L34.8508 51.0013V76.3364C34.8508 96.207 34.8508 101.671 34.187 101.671C24.8934 101.671 11.1191 103.99 4.64678 106.639L0 108.461V159.959L3.48508 158.468C9.62546 155.984 15.5999 154.66 25.2253 153.501L34.6848 152.507V127.172L35.0168 101.837L37.1742 101.506C40.8252 100.843 57.7527 101.175 63.7272 101.837L69.0378 102.499V127.834C69.3697 151.679 69.2037 153.004 68.208 152.673C66.7144 151.845 43.6465 151.348 38.9997 151.845L34.8508 152.342V203.177L38.1699 202.68C42.1529 202.018 59.9102 201.853 65.2208 202.515L69.3697 202.846V178.173C69.3697 164.264 69.5357 153.335 69.8676 153.335C70.8633 152.507 87.7908 156.316 99.0758 159.462L103.059 160.787V210.463L106.876 211.457L123.969 216.755C133.927 219.902 155.501 225.035 158.322 225.035C158.488 225.035 158.654 230.665 158.654 237.454C158.654 245.402 158.82 249.873 159.318 249.873L180.228 253.185L182.22 253.516V229.175L184.377 229.506L200.475 231.493L203.794 231.824V255.669L212.756 256H224.373L226.862 255.669V232.486L232.173 231.824C247.154 230.309 261.042 223.311 271.155 212.18C281.269 201.049 286.892 186.574 286.938 171.55C287.768 148.533 280.3 136.776 260.717 130.815C260.219 130.649 261.049 129.325 263.372 127.172C269.077 121.27 273.484 114.245 276.313 106.547C279.142 98.8482 280.33 90.6457 279.802 82.4631C278.806 58.7839 264.866 47.3583 232.339 43.2186L226.862 42.5563V18.8771L216.739 17.718C212.854 17.3939 208.98 16.9521 205.122 16.3933L203.96 16.0621V40.0725L201.637 39.9068L190.85 37.9198L182.552 36.2639L182.22 12.088L170.769 9.27296L159.152 6.45796C158.707 10.3601 158.54 14.289 158.654 18.2148C158.654 28.978 158.654 29.9715 157.658 29.9715C156.995 29.9715 152.182 28.8124 146.871 27.3221L136.914 24.6727C136.582 24.6727 136.25 35.436 136.25 48.683C136.25 67.5601 136.25 72.6934 135.586 72.6934C135.088 72.6934 127.952 70.3752 119.654 67.3946L103.889 61.599C103.225 61.4334 103.059 55.6378 102.893 36.4295V11.5912L95.9227 9.27296C89.6163 7.28589 71.3612 2.31824 69.8676 2.31824C69.5357 2.31824 69.3697 11.5912 69.3697 27.1565L69.2037 52.326L62.0676 51.3325C57.9187 50.8357 51.1145 50.5045 45.1401 50.5045H35.1827V25.5006L34.8508 0L32.3615 0.165587L22.4041 0.662356ZM79.659 54.8098C83.8079 55.9689 90.778 57.7904 95.0929 59.2807L103.059 61.7645V86.2717C103.059 99.8499 103.059 110.944 102.727 110.944L95.0929 108.792C91.1099 107.467 83.6419 105.646 78.6632 104.652L69.7016 102.665L69.3697 52.9884H70.6973L79.659 54.8098ZM192.177 77.6611L209.437 80.1449C229.351 82.6287 235.16 86.4373 235.824 98.3596C236.654 112.435 228.024 118.561 209.935 116.906C201.803 116.243 183.714 113.594 182.718 112.931C182.386 112.766 182.22 104.983 182.22 94.2199V75.8396L183.548 76.1708L192.177 77.8267M135.752 122.204C136.582 122.867 136.582 170.722 135.752 170.722L119.157 165.589L103.059 160.29V135.783C103.059 122.204 103.225 111.11 103.391 111.11L135.752 122.204ZM192.177 152.01C196.492 152.673 204.126 153.666 209.105 153.832C233.998 155.653 237.981 156.978 241.632 164.264C246.943 175.524 241.632 188.44 230.181 191.917C224.041 193.739 190.352 192.248 182.884 189.765C181.556 189.268 181.888 150.851 183.216 150.851L192.177 152.01Z" fill="black"/>
</svg>

<svg xmlns="http://www.w3.org/2000/svg" fill="none" viewBox="0 0 287 256"><path fill="#000" fill-rule="evenodd" d="M22.404.662A54.9 54.9 0 0 0 3.32 4.636L0 6.126V57.79l2.323-1.324c4.98-2.484 13.277-4.14 27.383-4.968l5.145-.497v25.335c0 19.871 0 25.335-.664 25.335-9.294 0-23.068 2.319-29.54 4.968L0 108.461v51.498l3.485-1.491c6.14-2.484 12.115-3.808 21.74-4.967l9.46-.994v-25.335l.332-25.335 2.157-.331c3.651-.663 20.579-.331 26.553.331l5.31.662v25.335c.333 23.845.167 25.17-.829 24.839-1.494-.828-24.561-1.325-29.208-.828l-4.15.497v50.835l3.32-.497c3.983-.662 21.74-.827 27.05-.165l4.15.331v-24.673c0-13.909.166-24.838.498-24.838.995-.828 17.923 2.981 29.208 6.127l3.983 1.325v49.676l3.817.994 17.093 5.298c9.958 3.147 31.532 8.28 34.353 8.28.166 0 .332 5.63.332 12.419 0 7.948.166 12.419.664 12.419l20.91 3.312 1.992.331v-24.341l2.157.331 16.098 1.987 3.319.331v23.845l8.962.331h11.617l2.489-.331v-23.183l5.311-.662a60.95 60.95 0 0 0 38.982-19.644 60.7 60.7 0 0 0 15.783-40.63c.83-23.017-6.638-34.774-26.221-40.735-.498-.166.332-1.49 2.655-3.643a58.9 58.9 0 0 0 12.941-20.625 58.8 58.8 0 0 0 3.489-24.084c-.996-23.68-14.936-35.105-47.463-39.244l-5.477-.663V18.877l-10.123-1.159a193 193 0 0 1-11.617-1.325l-1.162-.33v24.01l-2.323-.166-10.787-1.987-8.298-1.656-.332-24.176-11.451-2.815-11.617-2.815a82.6 82.6 0 0 0-.498 11.757c0 10.763 0 11.756-.996 11.756-.663 0-5.476-1.159-10.787-2.649l-9.957-2.65c-.332 0-.664 10.764-.664 24.011 0 18.877 0 24.01-.664 24.01-.498 0-7.634-2.318-15.932-5.298l-15.765-5.796c-.664-.166-.83-5.961-.996-25.17V11.591l-6.97-2.318C89.616 7.286 71.36 2.318 69.868 2.318c-.332 0-.498 9.273-.498 24.839l-.166 25.169-7.136-.993c-4.15-.497-10.953-.828-16.928-.828h-9.957V25.5L34.85 0l-2.49.166zM79.66 54.81c4.149 1.159 11.119 2.98 15.434 4.47l7.966 2.484v24.508c0 13.578 0 24.672-.332 24.672l-7.634-2.152c-3.983-1.325-11.451-3.146-16.43-4.14l-8.961-1.987-.332-49.677h1.327zm112.517 22.85 17.26 2.484c19.914 2.484 25.723 6.292 26.387 18.215.83 14.075-7.8 20.201-25.889 18.546-8.132-.663-26.221-3.312-27.217-3.975-.332-.165-.498-7.948-.498-18.711V75.84l1.328.33 8.629 1.657m-56.425 44.377c.83.663.83 48.518 0 48.518l-16.595-5.133-16.098-5.299v-24.507c0-13.579.166-24.673.332-24.673zm56.425 29.806c4.315.663 11.949 1.656 16.928 1.822 24.893 1.821 28.876 3.146 32.527 10.432 5.311 11.26 0 24.176-11.451 27.653-6.14 1.822-39.829.331-47.297-2.152-1.328-.497-.996-38.914.332-38.914z" clip-rule="evenodd"/></svg>
